X: 32090
T: Pepper Plant, The
R: polka
M: 2/4
K: Gmajor
|:B>A|GE ED|EG G>A|BA GE|c2 B>A|
GE ED|EG G>B|dB AF|G2:|
|:GB/c/|dg dB|ce d>B|cf fe|f3 a|
gd BG|e2 d>c|BG AF|1 DG:|2 G2||

